X:4
T:Getingen e. Hans Dalfors (Ore)
R:polska J
Z:2000 Brian Wilson 
Z:Ola Backstrom, Track 1;
Z:based on Linda's transcription in Nothafte
M:3/4
L:1/16
K:A
=f \
|: e3d (cd)ef g2a2 \
| b2=c'2 a4 =g3(g \
| =f2)ed (cd)ef =g2ag \
| =f2ed (f2e2) e3f |
| e3d (cd)ef g2a2 \
| b2=c'2 a4 =g3(g \
| =f2)ed (cd)ef =g2ag \
|[1 =f2ed (f2e2) e3f :|[2 =f2ed (f2e2) e3d |
P:B
|: c3c d2d2 c2e2 \
| e3d (Bd)BG (B2A2) \
| c3c d2d2 c2e2 \
| (dc)df e6 d2 \
| c3c d2d2 c2e2 \
| e3d (Bd)BG (B2A2) |
| c3c d2d2 c2e2 \
| (dc)df e4 a3(a \
| g2)eg f2(ed) c2(BA) \
|[1 (GA)Bc (B2A2) A3d \
:|[2 (GA)Bc (B2A2) A2 z2 |]
